X:535
T:Reel 535
M:4/4
K:Gmaj
L:1/8
 (3cBA |G2BG DGBG|ABcA BGAF|G2BG dGBG|ABcd egfe|G2BG dGBG|ABcd efga|bgaf gedB|ABcA BGG2|||gG (3GGG d2eG|dG (3GGG e2dB|AG (3AAA eAcA|AAAg fgec|dG (3GGG BGdG|dGfG edcB|cdef gedB|AGFG AGF2|
